!!!OTL: Winterrosen
!!!OTL-incipit:Es wollt' ein Maedchen Wasser hol'n
!!!ARE: Europa, Mitteleuropa, Deutschland (), Brandenburg, Altlandsberg
!!!YOR: 7, S. 63
!!    1842 aufgezeichnet
!!!SCT: Q0145K
!!!TXL: @@DE
!!!YEM: Copyright 1995, estate of Helmut Schaffrath.
**kern	**text
*ICvox	*
*M2/4	*
*k[f#]	*
*G:	*
!LO:TX:a:t=78	!
{8d	Es
=1	=1
8.gL	wollt'
16gJ	ein
8.gL	Mad-
16bJ	-chen
=2	=2
8.dd/L	Was-
16aJ	-ser
8.aL}	hol'n
{16aJ	aus
=3	=3
8.dd/L	ei-
16aJ	-nem
8.aL	kün-
16gJ	-len
=4	=4
8.f#L	Brun-
16eJ	.
8d	-nen.
8r}	.
=5	=5
{8dL	hm,
8bJ	hm,
8g	hm,
8r	.
=6	=6
8dL	ha,
8ccJ	ha,
8a}	ha,
{8d	aus
=7	=7
8.gL	ei-
16gJ	-nem
8.ddL	kün-
16ccJ	-len
=8	=8
(8.bL	Brun-
16aJ)	.
8g}	-nen.
==	==
!!!AGN: Ballade, Verfuehrung, verlorene Ehre
!! Refrain auf sinnfreie Silben in der dritten Zeile.
!!!ONB: ESAC (Essen Associative Code) Database: BALLADE
!!!AMT: simple duple
!!!AIN: vox
!!!EED: Helmut Schaffrath
!!!EEV: 1.0
!!!source: Deutsche Volkslieder mit ihren Melodien Balladen. Herausgegeben vom Deutschen Volksliedarchiv. Siebenterer Band. Freiburg/Breisgau 1982.
!!!page: 63
!!!ENC: Anna Maria Matuszewska
!!!EEV: 2025/03/07
*-	*-
